icon-themes/sifr_svg/cmd/sc_refresharrows.svg

<svg viewBox="0 0 16 16" xmlns="http://www.w3.org/2000/svg"><path d="m3 1v1c0 .2653.0931.53058.28125.71875l.28125.28125h-3.5625v2h3.5625l-.28125.28125c-.18125.18818-.28125.45344-.28125.71875v1h1c.26529 0 .53057-.1.71875-.28125l2-2 .28125-.28125v-.875l-.28125-.28125-2-2c-.18817-.18814-.45344-.28125-.71875-.28125zm-2 8c-.554 0-1 .446-1 1v4c0 .554.446 1 1 1h4c.554 0 1-.446 1-1v-4c0-.554-.446-1-1-1zm8 0v2.5625l-.28125-.28125c-.18818-.18125-.45344-.28125-.71875-.28125h-1v1c0 .26529.1.53057.28125.71875l2.28125 2.28125h.875l2.28125-2.28125c.18125-.18817.28122-.45344.28125-.71875v-1h-1c-.2653 0-.53058.0931-.71875.28125l-.28125.28125v-2.5625zm-7 2h2v2h-2z" fill="#555753"/></svg>

<svg xmlns="http://www.w3.org/2000/svg" viewBox="0 0 16 16">
  <path
     style="fill:#555753"
     d="M 3,1 V 2 C 3,2.2653 3.0931,2.53058 3.28125,2.71875 L 3.5625,3 H 0 V 5 H 3.5625 L 3.28125,5.28125 C 3.1,5.46943 3,5.73469 3,6 V 7 H 4 C 4.26529,7 4.53057,6.9 4.71875,6.71875 l 2,-2 L 7,4.4375 v -0.875 l -0.28125,-0.28125 -2,-2 C 4.53058,1.09311 4.26531,1 4,1 Z M 1,9 C 0.446,9 0,9.446 0,10 v 4 c 0,0.554 0.446,1 1,1 h 4 c 0.554,0 1,-0.446 1,-1 V 10 C 6,9.446 5.554,9 5,9 Z m 8,0 v 2.5625 L 8.71875,11.28125 C 8.53057,11.1 8.26531,11 8,11 H 7 v 1 c 0,0.26529 0.1,0.53057 0.28125,0.71875 L 9.5625,15 h 0.875 l 2.28125,-2.28125 C 12.9,12.53058 12.99997,12.26531 13,12 v -1 h -1 c -0.2653,0 -0.53058,0.0931 -0.71875,0.28125 L 11,11.5625 V 9 Z m -7,2 h 2 v 2 H 2 Z"
     />
</svg>
